X:2564
T:Cantar de Ronda (CT 289)
R:Ronda
C:Tradicional
S:Música Tradicional Asturiana, (C) Tello & Tito. Asturies, 2001.
S:http://pagina.de/MusTradAst <telloytito@asturies.org>
N:Canción de Ronda, dictada por Fernando Menéndez Álvarez, de treinta y cinco años, de Llanuces, ayuntamiento de Quirós.
O:Llanuces (Quirós)
A:Asturies
Z:Cancioneru de Torner 289
M:3/4
L:1/8
Q:1/4=84
W:Esta noche ha de salir
W:la ronda de los chavales,
W:y ha de saber mi navaja
W:cuáles son los más cobardes.
K:G
|: [M:3/4]Bd de dc|(d3/2c/4B/4 c2) z2|
[M:3/8]
[Q:3/8=72]
(d3/2A/4G/4)A|(B3/2G/4F/4)G|(B3/2A/4G/4)A|(B3/2G/4)F/4G-|G2 z :||


